Yosa-Max-Dark/actions/22x22/document-import-local.svg

<?xml version="1.0" encoding="UTF-8"?>
<svg id="svg4" version="1.1" viewBox="0 0 22 22" xmlns="http://www.w3.org/2000/svg">
 <defs id="defs8">
  <style id="current-color-scheme" type="text/css">.ColorScheme-Text {
        color:#dfdfdf;
      }</style>
 </defs>
 <g id="g859">
  <path id="rect849" d="m7.0565783 9 5.9960937 5-5.9960937 5-0.00391-0.0039v-3.9961h-5.999996v-2h5.9999997v-3.9960938z" style="fill:#dfdfdf"/>
  <path id="path831" d="m5.0527344 3v4h2v-2h9.9999996v12h-6v2h8v-16h-14z" style="fill:#dfdfdf"/>
 </g>
</svg>

<?xml version="1.0" encoding="UTF-8" standalone="no"?>
<svg
   xmlns:dc="http://purl.org/dc/elements/1.1/"
   xmlns:cc="http://creativecommons.org/ns#"
   xmlns:rdf="http://www.w3.org/1999/02/22-rdf-syntax-ns#"
   xmlns:svg="http://www.w3.org/2000/svg"
   xmlns="http://www.w3.org/2000/svg"
   height="22"
   width="22"
   version="1.1"
   id="svg4">
  <metadata
     id="metadata10">
    <rdf:RDF>
      <cc:Work
         rdf:about="">
        <dc:format>image/svg+xml</dc:format>
        <dc:type
           rdf:resource="http://purl.org/dc/dcmitype/StillImage" />
        <dc:title></dc:title>
      </cc:Work>
    </rdf:RDF>
  </metadata>
  <defs
     id="defs8">
    <style
       type="text/css"
       id="current-color-scheme">
      .ColorScheme-Text {
        color:#dfdfdf;
      }
      </style>
  </defs>
  <g
     id="g859">
    <path
       style="opacity:1;vector-effect:none;fill:#dfdfdf;fill-opacity:1;stroke:none;stroke-width:0.49000001;stroke-linecap:butt;stroke-linejoin:miter;stroke-miterlimit:4;stroke-dasharray:none;stroke-dashoffset:0;stroke-opacity:1"
       d="m 7.0565783,9 5.9960937,5 -5.9960937,5 -0.00391,-0.0039 V 15 H 1.0526723 V 13 H 7.052672 V 9.0039062 Z"
       id="rect849" />
    <path
       style="opacity:1;fill:#dfdfdf;fill-opacity:1;stroke:none;stroke-width:0.28062433;stroke-miterlimit:4;stroke-dasharray:none;stroke-opacity:1"
       d="M 5.0527344 3 L 5.0527344 7 L 7.0527344 7 L 7.0527344 5 L 17.052734 5 L 17.052734 17 L 11.052734 17 L 11.052734 19 L 19.052734 19 L 19.052734 3 L 5.0527344 3 z "
       id="path831" />
  </g>
</svg>
